X:1
T:Lux Vespera, 77.75
T:Lux Vespera, 77.75
T:Graham W. White, 1885
T:Public Domain Courtesy of the Cyber Hymnal™
C:Graham W. White, 1885
Z:Public Domain
Z:Courtesy of the Cyber Hymnal™
%%score ( 1 2 ) ( 3 4 )
L:1/8
Q:1/4=110
M:4/4
K:F
V:1 treble 
V:2 treble 
V:3 bass 
V:4 bass 
V:1
 [CF]2 F2 [EG]2 F2 | [FB]2 (AG) [FA]4 | [Ac]2 [Gc]2 F2 [_EF]2 | [DA]2 [DG]2 (F2 E2) | %4
 [EG]2 F2 [FB]2 [FA]2 | [Fd]2 [Fc]2 [F=B]4 | [Fc]3 [FA] [EA]2 [EG]2 | F8 |] %8
V:2
 x2 F2 F2 x2 | x2 E2 x4 | x4 F2 x2 | x4 C4 | x2 F2 x4 | x8 | x8 | F8 |] %8
V:3
 [F,A,]2 [A,C]2 [B,C]2 [A,C]2 | [G,D]2 [C,C]2 [F,C]4 | [F,C]2 [E,C]2 [D,A,]2 [A,,C]2 | %3
 [B,,C]2 [B,,B,]2 (A,2 G,2) | [C,B,]2 [F,A,]2 [D,D]2 [F,C]2 | B,2 [A,C]2 [G,D]4 | %6
 [A,C]3 [F,C] [C,C]2 [C,B,]2 | [F,A,]8 |] %8
V:4
 x8 | x8 | x8 | x4 C,4 | x8 | B,2 x6 | x8 | x8 |] %8

